!!!SOCIAL_FUNCTION:	songs with hunting dance
!!!PDT:	1956
!!!OTL: No_51_Cow_Creek_Hunting_Dance_Song_(r).krn
!!!LANG: Non-Tone
!!!LING_GROUP: Muskogean
!!!REG: Florida
**kern
*staff1
=1-
*clefF4
*k[b-]
*M2/4
4r
8.r
16c\
=2
2c\
=3
4G\
8F\
16r
16c\
=4!|:
2c\
=5
8c\L
8c\J
4B-\
=6
4G\
8F\L
8F\J
=7
4.F\
8r
=8
8c\L
8c\J
4B-\
=9
4G\
8F\L
8F\J
=10
2F\
=11
4G\
16F\LK
8F\
16F\Jk
=12
8F\L
[8D\J
4D\]
=13
4F\
8D\L
8D\J
=14
4D\
8.r
16B-\
=15
16B-\LK
[8.G\J
4G\]
=16
4G\
8.r
16c\
=17:|!
4D\
4r
==
*-
